X: 1
T: Jewels Of The Ocean, The
M: 3/4
L: 1/8
R: waltz
K: Gmaj
DE|:G3B AB|GE D2 DE|G3A Bd|c3 A Bc|d3B GA|B3A GB|
A3 B AG|EA GE DE|G3B AB|GE D2 DE|G3A Bd|c3 A Bc|d3B GA|
B3A GB|AG EG DE|1G3 E DE:|2G3 A Bd||c3d cA|c3d cA|B3d cA|B4 AG|
A3G AB|A3B AG| E3A GA|EA GA E2|c3d cA|c3d cA|B3d cA|B4 AG|
A3G AB|d3B de|dB AG ED|1G3 A Bd:|2 G3E DE||
